X:19
T:June Apple - A
M:4/4
K:Amix
|:"A"ageg ageg|agec A2ef|"G"gfef gfef|geag e2eg|
|:"A"c2B2 A4|ABcd e2A2|"G"G2A2 B2c2|"D"d2>e2 d2ed|

